src/main/resources/icons/AllIcons/actions/refactoringBulb.svg

<!-- Copyright 2000-2021 JetBrains s.r.o. Use of this source code is governed by the Apache 2.0 license that can be found in the LICENSE file. -->
<svg xmlns="http://www.w3.org/2000/svg" width="16" height="16" viewBox="0 0 16 16">
  <g fill="none" fill-rule="evenodd">
    <path fill="#6E6E6E" d="M7.64194584 8.22201519L6.79657297 9.06738806 5.57145378 7.016 4.13627731 7.016 4.13627731 9.7 2.99 9.7 2.99 2 5.89763025 2C6.71773109 2 7.36076471 2.286 7.78013445 2.77 8.12494958 3.188 8.32065546 3.76 8.32065546 4.431 8.32065546 5.718 7.67762185 6.477 6.77364706 6.785L7.64194584 8.22201519zM4.343 5.817L5.76744444 5.817C6.46383951 5.817 6.907 5.311 6.907 4.53L6.907 4.508C6.907 3.683 6.47966667 3.232 5.75953086 3.232L4.343 3.232 4.343 5.817zM13.108434 8.96199965L11.0380163 6.89158197 6 11.9013923 6 13.97181 8.07041768 13.97181 13.108434 8.96199965zM14.8337821 7.23665158C15.055406 7.01500638 15.055406 6.42308794 14.8337821 6.20144274L13.7985732 5.1662339C13.5769494 4.9445887 12.9849883 4.9445887 12.7633644 5.1662339L11.7281556 6.20144274 13.7985732 8.27186042 14.8337821 7.23665158z"/>
  </g>
</svg>

<svg xmlns="http://www.w3.org/2000/svg" width="16" height="16" viewBox="0 0 16 16"><rect id="frame" width="16" height="16" fill="none"/><path fill="#6E6E6E" d="M7.642 8.222l-.845.845L5.57 7.016H4.136V9.7H2.99V2h2.908c.82 0 1.463.286 1.882.77.345.418.54.99.54 1.661 0 1.287-.642 2.046-1.546 2.354l.868 1.437zM4.343 5.817h1.424c.697 0 1.14-.506 1.14-1.287v-.022c0-.825-.427-1.276-1.147-1.276H4.343v2.585zm8.765 3.145l-2.07-2.07L6 11.902v2.07h2.07l5.038-5.01zm1.726-1.725c.221-.222.221-.814 0-1.036l-1.035-1.035c-.222-.221-.814-.221-1.036 0l-1.035 1.035 2.07 2.07 1.036-1.034z" fill-rule="evenodd"/></svg>
